X:5
T:Over the Hills and Far Away
M:2/4
L:1/8
K:D
%%MIDI channel 1
%%MIDI program 72
%%MIDI transpose 8
%%MIDI grace 1/8
%%MIDI ratio 3 1
df/e/ d/e/f/e/|dB B>A|df/e/ d/e/f/d/|ge e>A|df/e/ d/e/f/e/|dB g>B|BA/G/ Af|ge e2||
a>g fe|dB Af/g/|a>g fe/d/|ge ef/g/|a>g fe|dB Hg2|BA/G/ Af|ge ez|]
